apps/www/public/images/launchweek/8/lw8-hackathon-thumb.svg

<svg width="132" height="76" viewBox="0 0 132 76" fill="none" xmlns="http://www.w3.org/2000/svg">
<g clip-path="url(#clip0_2932_199528)">
<path d="M135.023 -31.2891H-2.9375V106.672H135.023V-31.2891Z" fill="#020405" stroke="white"/>
<g opacity="0.3" filter="url(#filter0_f_2932_199528)">
<path d="M-12.1957 67.4624C2.39617 70.8852 14.3008 38.7141 18.4292 22.2007C27.8868 -9.77554 76.5265 2.15942 62.3399 -20.5841C48.1534 -43.3275 25.1847 -21.2597 -12.1957 -22.1604C-49.5761 -23.0611 -22.3289 12.743 -22.5541 37.5131C-22.7793 62.2832 -65.7892 62.7336 -63.7626 77.3705C-61.736 92.0074 -30.4355 63.184 -12.1957 67.4624Z" fill="#6F13A4"/>
</g>
<circle cx="84.4815" cy="49.1861" r="0.417039" transform="rotate(4.39775 84.4815 49.1861)" fill="#7E7E7E"/>
<circle cx="70.6654" cy="50.5636" r="0.417039" transform="rotate(108.965 70.6654 50.5636)" fill="#7E7E7E"/>
<circle cx="60.431" cy="61.7823" r="0.417039" transform="rotate(108.965 60.431 61.7823)" fill="#7E7E7E"/>
<circle cx="52.849" cy="74.38" r="0.417039" transform="rotate(108.965 52.849 74.38)" fill="#7E7E7E"/>
<circle cx="52.2982" cy="27.4893" r="0.417039" transform="rotate(108.965 52.2982 27.4893)" fill="#7E7E7E"/>
<circle cx="109.712" cy="62.0753" r="0.417039" transform="rotate(108.965 109.712 62.0753)" fill="#7E7E7E"/>
<circle cx="81.169" cy="47.1236" r="0.417039" transform="rotate(4.39775 81.169 47.1236)" fill="#7E7E7E"/>
<circle cx="120.923" cy="24.7525" r="0.417039" transform="rotate(4.39775 120.923 24.7525)" fill="#7E7E7E"/>
<circle cx="81.1416" cy="48.4634" r="0.417039" transform="rotate(4.39775 81.1416 48.4634)" fill="#7E7E7E"/>
<circle cx="77.4659" cy="4.05716" r="0.417039" transform="rotate(4.39775 77.4659 4.05716)" fill="#7E7E7E"/>
<circle cx="77.4971" cy="10.3579" r="0.417039" transform="rotate(4.39775 77.4971 10.3579)" fill="#7E7E7E"/>
<circle cx="82.6182" cy="8.56888" r="0.417039" transform="rotate(4.39775 82.6182 8.56888)" fill="#7E7E7E"/>
<circle cx="74.1849" cy="48.2198" r="0.417039" transform="rotate(108.965 74.1849 48.2198)" fill="#7E7E7E"/>
<circle cx="112.642" cy="50.5574" r="0.417039" transform="rotate(169.398 112.642 50.5574)" fill="#7E7E7E"/>
<circle cx="120.539" cy="29.4917" r="0.417039" transform="rotate(-86.0346 120.539 29.4917)" fill="#7E7E7E"/>
<circle cx="124.281" cy="29.019" r="0.417039" transform="rotate(-86.0346 124.281 29.019)" fill="#7E7E7E"/>
<circle cx="126.234" cy="20.0425" r="0.417039" transform="rotate(-86.0346 126.234 20.0425)" fill="#7E7E7E"/>
<circle cx="62.8511" cy="25.3355" r="0.417039" transform="rotate(-86.0346 62.8511 25.3355)" fill="#7E7E7E"/>
<circle cx="130.66" cy="35.4136" r="0.417039" transform="rotate(-86.0346 130.66 35.4136)" fill="#7E7E7E"/>
<circle cx="126.968" cy="8.71436" r="0.417039" transform="rotate(-86.0346 126.968 8.71436)" fill="#7E7E7E"/>
<circle cx="74.273" cy="11.9644" r="0.417039" transform="rotate(-86.0346 74.273 11.9644)" fill="#7E7E7E"/>
<circle cx="89.2027" cy="-0.0864194" r="0.417039" transform="rotate(-86.0346 89.2027 -0.0864194)" fill="#7E7E7E"/>
<circle cx="67.9839" cy="23.3433" r="0.417039" transform="rotate(-86.0346 67.9839 23.3433)" fill="#7E7E7E"/>
<circle cx="68.5503" cy="25.4175" r="0.417039" transform="rotate(-86.0346 68.5503 25.4175)" fill="#7E7E7E"/>
<circle cx="77.316" cy="29.8433" r="0.417039" transform="rotate(-86.0346 77.316 29.8433)" fill="#7E7E7E"/>
<circle cx="76.0738" cy="32.1011" r="0.417039" transform="rotate(-86.0346 76.0738 32.1011)" fill="#7E7E7E"/>
<circle cx="84.9293" cy="44.6362" r="0.417039" transform="rotate(-86.0346 84.9293 44.6362)" fill="#7E7E7E"/>
<circle cx="116.373" cy="51.702" r="0.417039" transform="rotate(169.398 116.373 51.702)" fill="#7E7E7E"/>
<circle cx="60.2868" cy="67.0926" r="0.417039" transform="rotate(169.398 60.2868 67.0926)" fill="#7E7E7E"/>
<circle cx="51.7594" cy="33.7059" r="0.417039" transform="rotate(169.398 51.7594 33.7059)" fill="#7E7E7E"/>
<circle cx="116.045" cy="50.3934" r="0.417039" transform="rotate(169.398 116.045 50.3934)" fill="#7E7E7E"/>
<circle cx="124.845" cy="75.4598" r="0.417039" transform="rotate(169.398 124.845 75.4598)" fill="#7E7E7E"/>
<g filter="url(#filter1_d_2932_199528)">
<ellipse cx="0.0105357" cy="0.0118572" rx="0.0105357" ry="0.0118572" transform="matrix(0.999179 0.040507 -0.108737 0.994071 81.8594 17.4141)" fill="#EADEEC"/>
<ellipse cx="0.0118517" cy="0.0105419" rx="0.0118517" ry="0.0105419" transform="matrix(0.102081 -0.994776 0.999487 0.0320441 80.8203 17.9219)" fill="#EADEEC"/>
<ellipse cx="0.0118517" cy="0.0105419" rx="0.0118517" ry="0.0105419" transform="matrix(0.102081 -0.994776 0.999487 0.0320441 81.5117 17.3398)" fill="#EADEEC"/>
</g>
<path d="M30.5417 38.0921H26.5594V42.1641H25.535V33.2263H26.5594V37.1958H30.5417V33.2263H31.5661V42.1641H30.5417V38.0921ZM40.6412 42.1641L39.8473 39.4878H36.6332L35.8393 42.1641H34.815L37.6064 33.2263H38.8869L41.6912 42.1641H40.6412ZM38.5796 35.2494L38.2979 34.1354H38.1698L37.8881 35.2494L36.8765 38.6427H39.6168L38.5796 35.2494ZM47.6 42.3177C47.0963 42.3177 46.6439 42.2281 46.2427 42.0488C45.8415 41.861 45.5 41.5793 45.2183 41.2037C44.9451 40.8281 44.7317 40.35 44.578 39.7696C44.4329 39.1805 44.3604 38.4891 44.3604 37.6952C44.3604 36.9013 44.4329 36.2141 44.578 35.6336C44.7317 35.0446 44.9451 34.5623 45.2183 34.1866C45.5 33.811 45.8415 33.5336 46.2427 33.3543C46.6439 33.1665 47.0963 33.0726 47.6 33.0726C48.3341 33.0726 48.9232 33.2305 49.3671 33.5464C49.811 33.8537 50.161 34.3275 50.4171 34.9677L49.5975 35.4671C49.4354 34.9805 49.2006 34.6135 48.8933 34.3659C48.5945 34.1098 48.1634 33.9818 47.6 33.9818C46.9171 33.9818 46.3878 34.2293 46.0122 34.7244C45.6451 35.211 45.4616 35.8683 45.4616 36.6964V38.6939C45.4616 39.522 45.6451 40.1836 46.0122 40.6787C46.3878 41.1653 46.9171 41.4086 47.6 41.4086C48.1805 41.4086 48.6286 41.2763 48.9445 41.0116C49.2604 40.7385 49.4994 40.3458 49.6616 39.8336L50.4811 40.3458C50.225 40.986 49.8622 41.4769 49.3927 41.8183C48.9317 42.1513 48.3341 42.3177 47.6 42.3177ZM56.0454 37.7336L54.8801 39.1933V42.1641H53.8558V33.2263H54.8801V36.2098L54.8033 38.0537H54.9314L56.2503 36.2098L58.4783 33.2263H59.6564L56.7112 37.0549L59.8484 42.1641H58.6448L56.0454 37.7336ZM68.2866 42.1641L67.4927 39.4878H64.2787L63.4848 42.1641H62.4604L65.2519 33.2263H66.5324L69.3366 42.1641H68.2866ZM66.225 35.2494L65.9433 34.1354H65.8153L65.5336 35.2494L64.522 38.6427H67.2622L66.225 35.2494ZM74.5931 34.1226V42.1641H73.5687V34.1226H71.0462V33.2263H77.1157V34.1226H74.5931ZM85.37 38.0921H81.3877V42.1641H80.3633V33.2263H81.3877V37.1958H85.37V33.2263H86.3944V42.1641H85.37V38.0921ZM93.459 42.3177C92.3749 42.3177 91.534 41.9464 90.9365 41.2037C90.3389 40.461 90.0402 39.2915 90.0402 37.6952C90.0402 36.0988 90.3389 34.9293 90.9365 34.1866C91.534 33.444 92.3749 33.0726 93.459 33.0726C94.5432 33.0726 95.384 33.444 95.9816 34.1866C96.5792 34.9293 96.8779 36.0988 96.8779 37.6952C96.8779 39.2915 96.5792 40.461 95.9816 41.2037C95.384 41.9464 94.5432 42.3177 93.459 42.3177ZM93.459 41.4086C94.2017 41.4086 94.7737 41.1653 95.1749 40.6787C95.5761 40.1836 95.7767 39.522 95.7767 38.6939V36.6964C95.7767 35.8683 95.5761 35.211 95.1749 34.7244C94.7737 34.2293 94.2017 33.9818 93.459 33.9818C92.7164 33.9818 92.1444 34.2293 91.7432 34.7244C91.342 35.211 91.1414 35.8683 91.1414 36.6964V38.6939C91.1414 39.522 91.342 40.1836 91.7432 40.6787C92.1444 41.1653 92.7164 41.4086 93.459 41.4086ZM102.342 36.3635L101.561 34.5196H101.433L101.522 36.3635V42.1641H100.523V33.2263H101.778L104.749 39.0269L105.53 40.8708H105.658L105.569 39.0269V33.2263H106.567V42.1641H105.312L102.342 36.3635Z" fill="#9296AA"/>
</g>
<defs>
<filter id="filter0_f_2932_199528" x="-111.277" y="-78.3514" width="223.636" height="207.347" filterUnits="userSpaceOnUse" color-interpolation-filters="sRGB">
<feFlood flood-opacity="0" result="BackgroundImageFix"/>
<feBlend mode="normal" in="SourceGraphic" in2="BackgroundImageFix" result="shape"/>
<feGaussianBlur stdDeviation="23.7226" result="effect1_foregroundBlur_2932_199528"/>
</filter>
<filter id="filter1_d_2932_199528" x="79.6286" y="16.1247" width="3.44206" height="2.98893" filterUnits="userSpaceOnUse" color-interpolation-filters="sRGB">
<feFlood flood-opacity="0" result="BackgroundImageFix"/>
<feColorMatrix in="SourceAlpha" type="matrix" values="0 0 0 0 0 0 0 0 0 0 0 0 0 0 0 0 0 0 127 0" result="hardAlpha"/>
<feOffset/>
<feGaussianBlur stdDeviation="0.595867"/>
<feComposite in2="hardAlpha" operator="out"/>
<feColorMatrix type="matrix" values="0 0 0 0 1 0 0 0 0 0.980333 0 0 0 0 0.508333 0 0 0 0.5 0"/>
<feBlend mode="normal" in2="BackgroundImageFix" result="effect1_dropShadow_2932_199528"/>
<feBlend mode="normal" in="SourceGraphic" in2="effect1_dropShadow_2932_199528" result="shape"/>
</filter>
<clipPath id="clip0_2932_199528">
<rect width="131.914" height="75.3795" fill="white" transform="translate(0.0859375)"/>
</clipPath>
</defs>
</svg>

<svg xmlns="http://www.w3.org/2000/svg" width="132" height="76" fill="none" viewBox="0 0 132 76"><g clip-path="url(#a)"><path fill="#020405" stroke="#fff" d="M135.023-31.29H-2.937v137.962h137.96z"/><g filter="url(#b)" opacity=".3"><path fill="#6f13a4" d="M-12.196 67.462C2.396 70.885 14.301 38.714 18.43 22.201 27.887-9.776 76.527 2.159 62.34-20.584c-14.186-22.743-37.154-.676-74.535-1.576-37.38-.901-10.133 34.903-10.358 59.673s-43.235 25.22-41.209 39.858c2.027 14.636 33.328-14.187 51.567-9.909"/></g><circle cx="84.481" cy="49.186" r=".417" fill="#7e7e7e" transform="rotate(4.398 84.481 49.186)"/><circle cx="70.665" cy="50.564" r=".417" fill="#7e7e7e" transform="rotate(108.965 70.665 50.564)"/><circle cx="60.431" cy="61.782" r=".417" fill="#7e7e7e" transform="rotate(108.965 60.431 61.782)"/><circle cx="52.849" cy="74.38" r=".417" fill="#7e7e7e" transform="rotate(108.965 52.849 74.38)"/><circle cx="52.298" cy="27.489" r=".417" fill="#7e7e7e" transform="rotate(108.965 52.298 27.49)"/><circle cx="109.712" cy="62.075" r=".417" fill="#7e7e7e" transform="rotate(108.965 109.712 62.075)"/><circle cx="81.169" cy="47.124" r=".417" fill="#7e7e7e" transform="rotate(4.398 81.169 47.124)"/><circle cx="120.923" cy="24.753" r=".417" fill="#7e7e7e" transform="rotate(4.398 120.923 24.753)"/><circle cx="81.142" cy="48.463" r=".417" fill="#7e7e7e" transform="rotate(4.398 81.142 48.463)"/><circle cx="77.466" cy="4.057" r=".417" fill="#7e7e7e" transform="rotate(4.398 77.466 4.057)"/><circle cx="77.497" cy="10.358" r=".417" fill="#7e7e7e" transform="rotate(4.398 77.497 10.358)"/><circle cx="82.618" cy="8.569" r=".417" fill="#7e7e7e" transform="rotate(4.398 82.618 8.569)"/><circle cx="74.185" cy="48.22" r=".417" fill="#7e7e7e" transform="rotate(108.965 74.185 48.22)"/><circle cx="112.642" cy="50.557" r=".417" fill="#7e7e7e" transform="rotate(169.398 112.642 50.557)"/><circle cx="120.539" cy="29.492" r=".417" fill="#7e7e7e" transform="rotate(-86.035 120.539 29.492)"/><circle cx="124.281" cy="29.019" r=".417" fill="#7e7e7e" transform="rotate(-86.035 124.281 29.019)"/><circle cx="126.234" cy="20.043" r=".417" fill="#7e7e7e" transform="rotate(-86.035 126.234 20.043)"/><circle cx="62.851" cy="25.335" r=".417" fill="#7e7e7e" transform="rotate(-86.035 62.851 25.335)"/><circle cx="130.66" cy="35.414" r=".417" fill="#7e7e7e" transform="rotate(-86.035 130.66 35.414)"/><circle cx="126.968" cy="8.714" r=".417" fill="#7e7e7e" transform="rotate(-86.035 126.968 8.714)"/><circle cx="74.273" cy="11.964" r=".417" fill="#7e7e7e" transform="rotate(-86.035 74.273 11.964)"/><circle cx="89.203" cy="-.086" r=".417" fill="#7e7e7e" transform="rotate(-86.035 89.203 -.086)"/><circle cx="67.984" cy="23.343" r=".417" fill="#7e7e7e" transform="rotate(-86.035 67.984 23.343)"/><circle cx="68.55" cy="25.418" r=".417" fill="#7e7e7e" transform="rotate(-86.035 68.55 25.418)"/><circle cx="77.316" cy="29.843" r=".417" fill="#7e7e7e" transform="rotate(-86.035 77.316 29.843)"/><circle cx="76.074" cy="32.101" r=".417" fill="#7e7e7e" transform="rotate(-86.035 76.074 32.101)"/><circle cx="84.929" cy="44.636" r=".417" fill="#7e7e7e" transform="rotate(-86.035 84.93 44.636)"/><circle cx="116.373" cy="51.702" r=".417" fill="#7e7e7e" transform="rotate(169.398 116.373 51.702)"/><circle cx="60.287" cy="67.093" r=".417" fill="#7e7e7e" transform="rotate(169.398 60.287 67.093)"/><circle cx="51.759" cy="33.706" r=".417" fill="#7e7e7e" transform="rotate(169.398 51.76 33.706)"/><circle cx="116.045" cy="50.393" r=".417" fill="#7e7e7e" transform="rotate(169.398 116.045 50.393)"/><circle cx="124.845" cy="75.46" r=".417" fill="#7e7e7e" transform="rotate(169.398 124.845 75.46)"/><g fill="#eadeec" filter="url(#c)"><ellipse cx=".011" cy=".012" rx=".011" ry=".012" transform="matrix(.99918 .0405 -.10874 .99407 81.86 17.414)"/><ellipse cx=".012" cy=".011" rx=".012" ry=".011" transform="matrix(.10208 -.99478 .99949 .03204 80.82 17.922)"/><ellipse cx=".012" cy=".011" rx=".012" ry=".011" transform="matrix(.10208 -.99478 .99949 .03204 81.512 17.34)"/></g><path fill="#9296aa" d="M30.542 38.092h-3.983v4.072h-1.024v-8.938h1.024v3.97h3.983v-3.97h1.024v8.938h-1.024zm10.1 4.072-.795-2.676h-3.214l-.794 2.676h-1.024l2.791-8.938h1.28l2.805 8.938zM38.58 35.25l-.282-1.114h-.128l-.282 1.114-1.011 3.394h2.74zm9.02 7.069q-.756 0-1.357-.27a2.7 2.7 0 0 1-1.025-.844q-.41-.564-.64-1.434-.218-.884-.218-2.075 0-1.19.218-2.061.23-.885.64-1.447a2.6 2.6 0 0 1 1.025-.833 3.2 3.2 0 0 1 1.357-.281q1.101 0 1.767.473.666.462 1.05 1.422l-.82.5q-.242-.732-.704-1.102-.448-.384-1.293-.384-1.024 0-1.588.742-.55.73-.55 1.972v1.998q0 1.242.55 1.985.564.73 1.588.73.87 0 1.344-.397.474-.41.718-1.178l.82.512q-.385.96-1.09 1.472-.69.5-1.792.5m8.445-4.584-1.165 1.46v2.97h-1.024v-8.938h1.024v2.984l-.077 1.844h.128l1.32-1.844 2.227-2.984h1.178l-2.945 3.829 3.137 5.11h-1.203zm12.242 4.43-.794-2.676h-3.214l-.794 2.676H62.46l2.792-8.938h1.28l2.805 8.938zm-2.062-6.915-.282-1.114h-.128l-.281 1.114-1.012 3.394h2.74zm8.368-1.126v8.041H73.57v-8.041h-2.523v-.897h6.07v.897zm10.777 3.97h-3.982v4.071h-1.025v-8.938h1.025v3.97h3.982v-3.97h1.024v8.938H85.37zm8.089 4.225q-1.626 0-2.523-1.114-.896-1.115-.896-3.509t.896-3.508q.897-1.114 2.523-1.114t2.523 1.114q.896 1.113.896 3.508t-.896 3.509-2.523 1.114m0-.91q1.114 0 1.716-.73.602-.741.602-1.984v-1.998q0-1.242-.602-1.972-.602-.742-1.716-.742t-1.716.742q-.602.73-.602 1.972v1.998q0 1.242.602 1.985.601.73 1.716.73m8.883-5.044-.781-1.844h-.128l.089 1.843v5.801h-.999v-8.938h1.255l2.971 5.8.781 1.845h.128l-.089-1.844v-5.8h.998v8.937h-1.255z"/></g><defs><filter id="b" width="223.636" height="207.347" x="-111.277" y="-78.351" color-interpolation-filters="sRGB" filterUnits="userSpaceOnUse"><feFlood flood-opacity="0" result="BackgroundImageFix"/><feBlend in="SourceGraphic" in2="BackgroundImageFix" result="shape"/><feGaussianBlur result="effect1_foregroundBlur_2932_199528" stdDeviation="23.723"/></filter><filter id="c" width="3.442" height="2.989" x="79.629" y="16.125" color-interpolation-filters="sRGB" filterUnits="userSpaceOnUse"><feFlood flood-opacity="0" result="BackgroundImageFix"/><feColorMatrix in="SourceAlpha" result="hardAlpha" values="0 0 0 0 0 0 0 0 0 0 0 0 0 0 0 0 0 0 127 0"/><feOffset/><feGaussianBlur stdDeviation=".596"/><feComposite in2="hardAlpha" operator="out"/><feColorMatrix values="0 0 0 0 1 0 0 0 0 0.980333 0 0 0 0 0.508333 0 0 0 0.5 0"/><feBlend in2="BackgroundImageFix" result="effect1_dropShadow_2932_199528"/><feBlend in="SourceGraphic" in2="effect1_dropShadow_2932_199528" result="shape"/></filter><clipPath id="a"><path fill="#fff" d="M.086 0H132v75.379H.086z"/></clipPath></defs></svg>
